src/static/svg/character-puff-hover.svg

<?xml version="1.0" encoding="UTF-8"?>
<svg width="297px" height="689px" viewBox="0 0 297 689" version="1.1" xmlns="http://www.w3.org/2000/svg" xmlns:xlink="http://www.w3.org/1999/xlink">
    <title>character-puff-hover</title>
    <g id="R4" stroke="none" stroke-width="1" fill="none" fill-rule="evenodd">
        <g id="D---Homepage---Hover-Full-Layout---1440" transform="translate(-1062.000000, -5655.000000)">
            <g id="Characters" transform="translate(-593.000000, 5044.000000)">
                <g id="character-puff-hover" transform="translate(1655.000000, 611.000000)">
                    <polygon id="Fill-1" fill="#FEFEFE" points="89 643 129 643 129 495 89 495"></polygon>
                    <path d="M78.9059852,650.661109 C70.5509481,657.410797 62.2814481,668.464033 70.0625593,680.351997 C73.8344667,686.112173 81.8749481,688.038681 89.1593926,688.536201 C100.728967,689.326705 117.828096,690.039817 126.983319,682.242573 C133.503448,676.239165 134.107726,667.101381 133.964244,659.069197 C133.787652,649.276345 132.515633,640.086045 132.915726,630.229621 C132.968152,628.949889 132.998504,627.592765 132.322485,626.473345 C131.163596,624.552365 128.451244,624.063137 126.078281,623.828197 C114.489393,622.689429 102.762541,622.780641 91.1957259,624.093541 C89.2256148,624.317425 87.2417074,624.580005 85.3985222,625.259949 C84.7666519,625.492125 84.129263,625.793401 83.7540037,626.313033 C83.3208,626.915585 83.3180407,627.686741 83.331837,628.408145 C83.4725593,635.522681 85.5282074,645.307241 78.9059852,650.661109" id="Fill-2" fill="#160403"></path>
                    <polygon id="Fill-4" fill="#FEFEFE" points="165.654889 643.194992 206.033889 643.194992 206.033889 494.837292 165.654889 494.837292"></polygon>
                    <path d="M215.440756,650.661109 C223.795793,657.410797 232.062533,668.464033 224.281422,680.351997 C220.512274,686.112173 212.471793,688.038681 205.187348,688.536201 C193.617774,689.326705 176.518644,690.039817 167.360663,682.242573 C160.843293,676.239165 160.239015,667.101381 160.382496,659.069197 C160.55633,649.276345 161.831107,640.086045 161.431015,630.229621 C161.378589,628.949889 161.345478,627.592765 162.021496,626.473345 C163.183144,624.552365 165.895496,624.063137 168.2657,623.828197 C179.857348,622.689429 191.5842,622.780641 203.151015,624.093541 C205.118367,624.317425 207.105033,624.580005 208.948219,625.259949 C209.580089,625.492125 210.217478,625.793401 210.592737,626.313033 C211.025941,626.915585 211.025941,627.686741 211.014904,628.408145 C210.871422,635.522681 208.818533,645.307241 215.440756,650.661109" id="Fill-6" fill="#160403"></path>
                    <path d="M244.809207,436.87096 C244.028337,431.28768 243.214356,425.707164 242.422448,420.126648 C239.031319,396.242924 235.56293,372.370256 231.995207,348.50588 C231.884837,347.784476 231.785504,347.060308 231.677893,346.338904 C231.131559,342.679368 230.56867,339.022596 230.008541,335.36306 C229.608448,335.443216 229.205596,335.512316 228.808263,335.592472 C227.638337,326.916276 226.468411,318.242844 225.27917,309.569412 C225.113615,308.361544 224.956337,307.15644 224.788022,305.951336 C223.665004,297.794772 225.4668,274.270368 218.932874,269.101688 C214.70293,265.754484 208.861578,265.312244 203.412041,265.013732 L150.359763,262.10324 L150.359763,261.90976 C149.7748,261.940164 149.187078,261.973332 148.602115,262.003736 C148.017152,261.973332 147.42943,261.940164 146.844467,261.90976 L146.844467,262.10324 L93.7921889,265.013732 C88.3454111,265.312244 82.5013,265.754484 78.2713556,269.101688 C71.7346704,274.270368 73.5392259,297.794772 72.4134481,305.951336 C72.2478926,307.15644 72.0878556,308.361544 71.9250593,309.569412 C70.7358185,318.242844 69.5658926,326.916276 68.3932074,335.592472 C67.9986333,335.512316 67.5930222,335.443216 67.1984481,335.36306 C66.6355593,339.022596 66.0726704,342.679368 65.5235778,346.338904 C65.4132074,347.060308 65.3166333,347.784476 65.206263,348.50588 C61.6385407,372.370256 58.1729111,396.242924 54.7817815,420.126648 C53.9898741,425.707164 53.1758926,431.28768 52.3950222,436.87096 C49.6026519,456.782816 47.4283556,478.751088 60.7279852,495.17754 C75.5479667,513.48904 104.133893,518.279052 129.872263,520.24702 C135.451485,520.672676 141.141078,520.998828 146.844467,521.150848 L146.844467,521.231004 C147.432189,521.225476 148.017152,521.203364 148.602115,521.192308 C149.187078,521.203364 149.7748,521.225476 150.359763,521.231004 L150.359763,521.150848 C156.063152,520.998828 161.749985,520.672676 167.331967,520.24702 C193.070337,518.279052 221.653504,513.48904 236.476244,495.17754 C249.775874,478.751088 247.601578,456.782816 244.809207,436.87096" id="Fill-7" fill="#FEFEFE"></path>
                    <path d="M64.3848315,441.54599 C59.909313,452.707022 52.3792944,460.371594 39.0548315,459.901714 C33.3597204,459.699942 27.5294056,457.759614 23.627813,452.621338 C12.6956278,438.220898 21.6659796,409.724058 25.9924981,392.482226 C33.1886463,363.814018 40.2854611,333.57033 49.7607574,305.93033 C55.5276093,289.11139 67.7345722,257.861606 84.9385537,267.24815 C97.5207759,274.113926 86.6906833,298.110974 83.8955537,309.946422 C77.066387,338.902086 74.160887,368.932946 71.7134241,398.596194 C70.5241833,413.071262 69.2632019,429.38439 64.3848315,441.54599" id="Fill-8" fill="#FEFEFE"></path>
                    <path d="M70.0057185,459.752182 C68.5874593,459.489602 67.1222926,460.813558 66.4573111,462.458138 C65.1770148,465.63121 66.3855704,469.122142 64.945237,472.248226 C57.3296815,488.801822 36.613163,487.096434 26.6246444,477.08799 C20.2535148,470.70315 16.4595333,460.962814 15.0964593,450.854866 C12.795237,433.800986 18.0350704,416.329742 23.1783296,400.516898 C23.426663,399.762326 23.7301815,398.93589 24.3317,398.60421 C24.8780333,398.305698 25.4961074,398.510234 26.0534778,398.723062 C40.6858296,404.361622 55.4451074,406.390398 70.7369222,408.640294 C71.0183667,408.681754 71.3191259,408.731506 71.5426259,408.94157 C71.7909593,409.17651 71.9040889,409.568998 72.0061815,409.942138 C75.5794222,423.126418 78.6642741,434.624658 78.9595148,448.809506 C79.0229778,451.70065 78.9871074,454.743814 77.8585704,457.330918 C76.7300333,459.915258 74.1473667,461.811362 71.9868667,460.774862 C71.3936259,460.49017 70.8666074,460.009234 70.2512926,459.81299 C70.1712741,459.788114 70.0884963,459.768766 70.0057185,459.752182" id="Fill-9" fill="#D6002A"></path>
                    <path d="M232.818294,441.54599 C237.296572,452.707022 244.823831,460.371594 258.148294,459.901714 C263.843406,459.699942 269.67372,457.759614 273.575313,452.621338 C284.510257,438.220898 275.539906,409.724058 271.210628,392.482226 C264.01448,363.814018 256.917665,333.57033 247.442369,305.93033 C241.678276,289.11139 229.468554,257.861606 212.264572,267.24815 C199.68235,274.113926 210.512443,298.110974 213.307572,309.946422 C220.139498,338.902086 223.042239,368.932946 225.489702,398.596194 C226.681702,413.071262 227.939924,429.38439 232.818294,441.54599" id="Fill-10" fill="#FEFEFE"></path>
                    <path d="M227.197407,459.752182 C228.618426,459.489602 230.080833,460.813558 230.745815,462.458138 C232.02887,465.63121 230.817556,469.122142 232.257889,472.248226 C239.873444,488.801822 260.589963,487.096434 270.578481,477.08799 C276.95237,470.70315 280.743593,460.962814 282.106667,450.854866 C284.407889,433.800986 279.170815,416.329742 274.024796,400.516898 C273.779222,399.762326 273.472944,398.93589 272.874185,398.60421 C272.325093,398.305698 271.707019,398.510234 271.149648,398.723062 C256.517296,404.361622 241.758019,406.390398 226.466204,408.640294 C226.184759,408.681754 225.884,408.731506 225.6605,408.94157 C225.412167,409.17651 225.299037,409.568998 225.196944,409.942138 C221.623704,423.126418 218.538852,434.624658 218.243611,448.809506 C218.180148,451.70065 218.216019,454.743814 219.347315,457.330918 C220.475852,459.915258 223.058519,461.811362 225.219019,460.774862 C225.812259,460.49017 226.336519,460.009234 226.951833,459.81299 C227.031852,459.788114 227.117389,459.768766 227.197407,459.752182" id="Fill-11" fill="#D6002A"></path>
                    <path d="M294.513676,144.490065 C293.175435,136.355613 291.213602,128.326193 288.561954,120.520657 C284.718306,109.210369 279.475713,98.4058932 272.996972,88.3946852 C260.34025,68.8283292 249.010731,50.2846532 242.64788,27.3213412 C241.613157,23.5899412 240.233528,19.9331692 239.03325,16.2542852 C238.10062,13.3963092 237.316991,10.4360652 236.174657,7.6665372 C235.186843,5.2701492 234.541176,2.6388212 233.144991,0.4138012 C231.721213,3.2994172 229.891824,5.7980732 228.175565,8.4680972 C226.177861,11.5665412 224.54162,14.8943972 222.461139,17.9430892 C208.648287,38.1810972 186.703898,46.9623252 163.319176,50.1768572 C142.754417,53.0044292 121.811639,52.4682132 101.382083,56.3709812 C58.9391574,64.4805572 16.05475,102.377761 4.47965741,144.738825 C-4.94873148,179.230781 0.415268519,217.888085 21.4491019,246.722133 C38.7303426,270.412377 63.9168611,286.180997 91.1673056,293.859389 C101.313102,296.720129 111.729306,298.505673 122.206213,299.315525 C130.806824,299.978885 139.658528,300.263577 148.496435,300.194477 C148.532306,300.194477 148.565417,300.194477 148.601287,300.194477 C148.637157,300.194477 148.675787,300.194477 148.708898,300.194477 C157.544046,300.263577 166.39575,299.978885 174.99912,299.315525 C185.473269,298.505673 195.892231,296.720129 206.038028,293.859389 C233.288472,286.180997 258.472231,270.412377 275.753472,246.722133 C287.731417,230.303973 294.185324,210.411465 295.998157,190.223209 C297.352954,175.126241 297.008046,159.628493 294.513676,144.490065" id="Fill-12" fill="#FEFEFE"></path>
                    <path d="M231.185365,160.325021 C226.607754,152.204389 219.869643,145.106437 211.79605,139.282689 C204.655087,134.136121 196.465606,129.984593 187.793254,127.005001 C176.292661,123.055245 163.004069,120.680969 149.62718,120.327177 C149.618902,120.324413 149.613383,120.324413 149.605106,120.324413 C149.596828,120.324413 149.58855,120.324413 149.580272,120.324413 C149.25192,120.332705 148.926328,120.349289 148.600735,120.363109 C148.275143,120.349289 147.952309,120.332705 147.623957,120.324413 C147.61568,120.324413 147.607402,120.324413 147.599124,120.324413 C147.590846,120.324413 147.582569,120.324413 147.574291,120.327177 C134.200161,120.680969 120.911569,123.055245 109.408217,127.005001 C100.738624,129.984593 92.5491426,134.136121 85.4109389,139.282689 C77.3318278,145.106437 70.5992352,152.204389 66.0188648,160.325021 C52.5509204,184.205981 50.5201056,217.199849 68.7836426,239.521913 C79.8841426,253.090389 96.0671981,262.123141 113.571939,266.520665 C120.092069,268.159717 126.783272,269.179633 133.515865,269.643985 C143.912754,270.362625 154.886328,270.379209 165.277698,269.525133 C174.454994,268.770561 183.555031,266.968433 192.199791,263.969493 C206.374106,259.049573 219.190865,250.801797 228.420587,239.521913 C246.684124,217.199849 244.653309,184.205981 231.185365,160.325021" id="Fill-13" fill="#FAD9CB"></path>
                    <path d="M137.898672,113.377652 C134.951783,114.828752 132.05732,116.39594 129.058006,117.742008 C121.428654,121.172132 110.833098,123.363984 103.907357,118.087508 C98.6785611,114.107348 97.3872278,119.466744 98.6758019,123.571284 C100.215469,128.47462 103.816302,133.13196 107.742728,136.465344 C119.240561,146.216736 134.435802,152.75636 150.293265,153.090804 C165.378135,153.408664 191.375876,146.929848 191.160654,128.540956 C191.105469,124.01076 188.875987,119.72656 185.614543,116.509264 C180.341598,111.304652 172.273524,107.990616 164.520006,107.752912 C157.704635,107.545612 150.740265,108.25596 144.283598,110.59154 C142.095506,111.382044 139.984672,112.349444 137.898672,113.377652" id="Fill-14" fill="#160403"></path>
                    <path d="M159.231609,203.442316 C159.231609,199.061376 154.471887,195.504108 148.600183,195.504108 C142.731239,195.504108 137.971517,199.061376 137.971517,203.442316 C137.971517,207.82602 142.731239,211.380524 148.600183,211.380524 C154.471887,211.380524 159.231609,207.82602 159.231609,203.442316" id="Fill-15" fill="#F2A078"></path>
                    <path d="M166.573845,231.972972 C161.106434,242.645267 138.282682,242.580079 132.866718,231.898471 C129.751837,225.756779 133.049121,220.94214 142.632291,220.16919 C144.92402,219.982937 147.22978,219.931718 149.53554,219.945687 C149.605695,219.945687 149.67585,219.950343 149.746005,219.950343 C149.81616,219.950343 149.886315,219.945687 149.95647,219.950343 C152.26223,219.94103 154.572667,220.006219 156.864397,220.201784 C166.442889,221.016641 169.716788,225.845249 166.573845,231.972972" id="Fill-10" fill="#160403"></path>
                    <path d="M109.91636,209.204693 C112.637036,203.47465 117.812844,203.914014 120.514886,209.419798 C123.31942,215.131534 131.97993,210.138342 129.180055,204.440336 C126.599139,199.177118 121.302205,194.97112 115.143413,194.943521 C109.045184,194.9162 103.757567,198.952859 101.251191,204.229807 C98.5351726,209.941543 107.186366,214.953042 109.91636,209.204693" id="Fill-12" fill="#160403"></path>
                    <path d="M198.208941,204.225965 C195.698062,198.948628 190.415434,194.911671 184.317585,194.94371 C178.159177,194.971173 172.862573,199.172903 170.27716,204.441086 C167.486777,210.130357 176.13743,215.137648 178.946447,209.416338 C181.643662,203.914725 186.819147,203.470752 189.544312,209.201216 C192.274136,214.945412 200.92479,209.947275 198.208941,204.225965" id="Fill-14" fill="#160403"></path>
                </g>
            </g>
        </g>
    </g>
</svg>

<svg xmlns="http://www.w3.org/2000/svg" viewBox="0 0 297 689"><g fill="none" fill-rule="evenodd"><path fill="#FEFEFE" d="M89 643h40V495H89z"/><path fill="#160403" d="M78.906 650.661c-8.355 6.75-16.625 17.803-8.843 29.691 3.771 5.76 11.812 7.687 19.096 8.184 11.57.79 28.67 1.504 37.824-6.293 6.52-6.004 7.125-15.142 6.981-23.174-.176-9.793-1.448-18.983-1.048-28.84.052-1.28.083-2.636-.594-3.756-1.158-1.92-3.87-2.41-6.244-2.645a165.9 165.9 0 0 0-34.882.266c-1.97.223-3.954.486-5.797 1.166-.632.232-1.27.533-1.645 1.053-.433.603-.436 1.374-.422 2.095.14 7.115 2.196 16.9-4.426 22.253"/><path fill="#FEFEFE" d="M165.655 643.195h40.379V494.837h-40.379z"/><path fill="#160403" d="M215.44 650.661c8.356 6.75 16.623 17.803 8.841 29.691-3.769 5.76-11.81 7.687-19.094 8.184-11.57.79-28.668 1.504-37.826-6.293-6.518-6.004-7.122-15.142-6.979-23.174.174-9.793 1.45-18.983 1.049-28.84-.052-1.28-.086-2.636.59-3.756 1.162-1.92 3.874-2.41 6.245-2.645a165.925 165.925 0 0 1 34.885.266c1.967.223 3.954.486 5.797 1.166.632.232 1.27.533 1.645 1.053.433.603.433 1.374.422 2.095-.144 7.115-2.196 16.9 4.426 22.253"/><path fill="#FEFEFE" d="M244.81 436.871c-.782-5.583-1.596-11.164-2.388-16.744a9834.976 9834.976 0 0 0-10.427-71.621c-.11-.722-.21-1.446-.317-2.167-.546-3.66-1.11-7.316-1.67-10.976-.4.08-.802.15-1.2.23-1.17-8.677-2.34-17.35-3.529-26.024-.165-1.207-.323-2.413-.491-3.618-1.123-8.156.679-31.68-5.855-36.85-4.23-3.347-10.071-3.789-15.521-4.087l-53.052-2.91v-.194c-.585.03-1.173.063-1.758.094-.585-.03-1.173-.064-1.758-.094v.193l-53.052 2.91c-5.447.3-11.29.741-15.52 4.089-6.537 5.168-4.733 28.693-5.859 36.85-.165 1.204-.325 2.41-.488 3.617-1.19 8.674-2.36 17.347-3.532 26.023-.394-.08-.8-.149-1.195-.229-.562 3.66-1.125 7.316-1.674 10.976-.11.721-.207 1.445-.318 2.167a9834.926 9834.926 0 0 0-10.424 71.62c-.792 5.581-1.606 11.162-2.387 16.745-2.792 19.912-4.967 41.88 8.333 58.307 14.82 18.311 43.406 23.101 69.144 25.069 5.58.426 11.27.752 16.972.904v.08c.588-.006 1.173-.028 1.758-.039.585.011 1.173.033 1.758.039v-.08c5.703-.152 11.39-.478 16.972-.904 25.738-1.968 54.322-6.758 69.144-25.07 13.3-16.426 11.126-38.394 8.333-58.306"/><path fill="#FEFEFE" d="M64.385 441.546c-4.476 11.161-12.006 18.826-25.33 18.356-5.695-.202-11.526-2.142-15.427-7.28-10.932-14.401-1.962-42.898 2.364-60.14 7.197-28.668 14.293-58.912 23.769-86.552 5.767-16.819 17.974-48.068 35.178-38.682 12.582 6.866 1.752 30.863-1.043 42.698-6.83 28.956-9.735 58.987-12.183 88.65-1.189 14.475-2.45 30.788-7.328 42.95"/><path fill="#D6002A" d="M70.006 459.752c-1.419-.262-2.884 1.062-3.549 2.706-1.28 3.173-.071 6.664-1.512 9.79-7.615 16.554-28.332 14.848-38.32 4.84-6.371-6.385-10.165-16.125-11.529-26.233-2.3-17.054 2.94-34.525 8.082-50.338.249-.755.552-1.581 1.154-1.913.546-.298 1.164-.094 1.721.12 14.633 5.638 29.392 7.666 44.684 9.916.281.042.582.092.806.302.248.235.361.627.463 1 3.573 13.184 6.658 24.683 6.954 38.868.063 2.89.027 5.934-1.101 8.52-1.129 2.585-3.712 4.481-5.872 3.445-.593-.285-1.12-.766-1.736-.962a2.45 2.45 0 0 0-.245-.06"/><path fill="#FEFEFE" d="M232.818 441.546c4.479 11.161 12.006 18.826 25.33 18.356 5.695-.202 11.526-2.142 15.427-7.28 10.935-14.401 1.965-42.898-2.364-60.14-7.197-28.668-14.293-58.912-23.769-86.552-5.764-16.819-17.973-48.068-35.177-38.682-12.583 6.866-1.753 30.863 1.043 42.698 6.831 28.956 9.734 58.987 12.182 88.65 1.192 14.475 2.45 30.788 7.328 42.95"/><path fill="#D6002A" d="M227.197 459.752c1.421-.262 2.884 1.062 3.549 2.706 1.283 3.173.072 6.664 1.512 9.79 7.615 16.554 28.332 14.848 38.32 4.84 6.374-6.385 10.166-16.125 11.529-26.233 2.3-17.054-2.936-34.525-8.082-50.338-.246-.755-.552-1.581-1.15-1.913-.55-.298-1.168-.094-1.725.12-14.633 5.638-29.392 7.666-44.684 9.916-.281.042-.582.092-.805.302-.249.235-.362.627-.464 1-3.573 13.184-6.658 24.683-6.953 38.868-.064 2.89-.028 5.934 1.103 8.52 1.129 2.585 3.712 4.481 5.872 3.445.593-.285 1.118-.766 1.733-.962.08-.025.165-.044.245-.06"/><path fill="#FEFEFE" d="M294.514 144.49c-1.339-8.134-3.3-16.164-5.952-23.97a145.14 145.14 0 0 0-15.565-32.125c-12.657-19.567-23.986-38.11-30.35-61.074-1.034-3.731-2.413-7.388-3.614-11.067-.932-2.858-1.716-5.818-2.858-8.587-.988-2.397-1.634-5.028-3.03-7.253-1.424 2.885-3.253 5.384-4.97 8.054-1.997 3.099-3.633 6.426-5.714 9.475-13.813 20.238-35.757 29.02-59.142 32.234-20.565 2.827-41.507 2.291-61.937 6.194-42.443 8.11-85.327 46.007-96.902 88.368-9.429 34.492-4.065 73.15 16.97 101.983 17.28 23.69 42.467 39.459 69.717 47.137 10.146 2.861 20.562 4.647 31.04 5.457 8.6.663 17.452.948 26.29.878h.212c8.835.07 17.687-.215 26.29-.878 10.474-.81 20.893-2.596 31.039-5.457 27.25-7.678 52.434-23.447 69.715-47.137 11.978-16.418 18.432-36.31 20.245-56.499 1.355-15.097 1.01-30.595-1.484-45.733"/><path fill="#FAD9CB" d="M231.185 160.325c-4.577-8.12-11.315-15.219-19.389-21.042-7.14-5.147-15.33-9.298-24.003-12.278-11.5-3.95-24.789-6.324-38.166-6.678-.008-.003-.014-.003-.022-.003h-.025c-.328.009-.654.025-.98.04-.325-.015-.648-.031-.976-.04h-.025c-.008 0-.016 0-.025.003-13.374.354-26.662 2.728-38.166 6.678-8.67 2.98-16.859 7.131-23.997 12.278-8.08 5.823-14.812 12.921-19.392 21.042-13.468 23.881-15.499 56.875 2.765 79.197 11.1 13.568 27.283 22.601 44.788 26.999 6.52 1.639 13.211 2.659 19.944 3.123 10.397.719 21.37.735 31.762-.119 9.177-.754 18.277-2.557 26.922-5.556 14.174-4.92 26.99-13.167 36.22-24.447 18.264-22.322 16.233-55.316 2.765-79.197"/><path fill="#160403" d="M137.899 113.378c-2.947 1.45-5.842 3.018-8.841 4.364-7.63 3.43-18.225 5.622-25.15.346-5.23-3.98-6.52 1.379-5.232 5.483 1.54 4.904 5.14 9.561 9.067 12.894 11.498 9.752 26.693 16.291 42.55 16.626 15.085.318 41.083-6.161 40.868-24.55-.056-4.53-2.285-8.814-5.546-12.032-5.273-5.204-13.341-8.518-21.095-8.756-6.815-.207-13.78.503-20.236 2.839-2.188.79-4.3 1.757-6.385 2.786"/><path fill="#F2A078" d="M159.232 203.442c0-4.38-4.76-7.938-10.632-7.938-5.869 0-10.628 3.557-10.628 7.938 0 4.384 4.76 7.939 10.628 7.939 5.872 0 10.632-3.555 10.632-7.939"/><path fill="#160403" d="M166.574 231.973c-5.468 10.672-28.291 10.607-33.707-.075-3.115-6.141.182-10.956 9.765-11.729 2.292-.186 4.598-.237 6.904-.223.07 0 .14.004.21.004.07 0 .14-.004.21 0 2.306-.009 4.617.056 6.908.252 9.579.815 12.853 5.643 9.71 11.771M109.916 209.205c2.721-5.73 7.897-5.291 10.599.215 2.804 5.712 11.465.718 8.665-4.98-2.58-5.263-7.878-9.469-14.037-9.496-6.098-.028-11.385 4.009-13.892 9.286-2.716 5.712 5.935 10.723 8.665 4.975M198.209 204.226c-2.51-5.277-7.794-9.314-13.891-9.282-6.159.027-11.455 4.229-14.04 9.497-2.791 5.69 5.86 10.697 8.668 4.975 2.698-5.501 7.873-5.945 10.598-.215 2.73 5.744 11.38.746 8.665-4.975"/></g></svg>
